!! 00000] TT[WS
!!!OTL: Fang fencheng
!!!ARE: Asia, China, Shanxi Yuanping
!! Ethnic Group: Han
!! WI, 214 (2)
!!!SCT: J0255
!!!YEM: Copyright 1995, estate of Helmut Schaffrath.
**kern
*ICvox
*Ivox
*M2/4
*k[b-e-]
*B-:
{8g
8b-
4b-
=1
8b-
8g
8f
8g
=2
8b-
8d
[4f
=3
4f]
8dd
8dd
=4
8cc
8g
4b-}
=5
{8b-
8cc
4ff
=6
8a
8b-
4a
=7
4dd
8.bb-
16dd
=8
8dd
8dd
8cc
8dd
=9
8cc
16dd
16cc
[4b-
=10
8b-]
8cc}
{4ff
=11
8g
8b-
8.cc
16dd
=12
8cc
8g
8.b-
16g
=13
2f}
=14
{8.b-
16g
8f
8g
=15
8d
8f
4d
=16
4cc
4cc
=17
4dd
8dd
8cc
=18
8dd
16dd
16cc
8b-
8dd
=19
2cc}
=20
{8dd
8cc
8dd
8ff
=21
8ff
8g
8b-
8cc
=22
8ff
16dd
16ff
8g
8f
=23
2d}
=24
{8g
8b-
4b-
=25
8g
8b-
8g
8f
=26
8dd
16dd
16cc
8g
16dd
16dd
=27
2cc}
=28
{8.dd
16cc
8dd
8ff
=29
8ff
8g
8b-
8cc
=30
8dd
16ff
16ff
8g
8ff
=31
2d}
=32
{8f
8f
8f
8c
=33
2d
=34
8.dd
16ff
8dd
8cc
=35
4ff}
{8a
8cc
=36
8ff
8dd
4cc
=37
4a
8a
8a
=38
4g
8g
8d
=39
2f}
=40
{8cc
8dd
8.ff
16g
=41
2b-
=42
4ff
8ff
8g
=43
2b-}
=44
{8.b-
16cc
8dd
8dd
=45
4cc
8ff
8a
=46
8g
8a
8g
8d
=47
2f}
==
!!!AGN: Xiaodiao. Qingge, Sichun
!!!ONB: ESAC (Essen Associative Code) Database: CHINA
!!!AMT: simple duple
!!!AIN: vox
!!!EED: Helmut Schaffrath
!!!EEV: 1.0
*-
!!!ONB: Tied note syntax fixed by Craig Sapp, 2004/05/03/
